markets/JTO.svg

<svg width="42" height="42" viewBox="0 0 42 42" fill="none" xmlns="http://www.w3.org/2000/svg">
<g clip-path="url(#clip0_8062_10711)">
<path opacity="0.998" fill-rule="evenodd" clip-rule="evenodd" d="M20.1 -0.00693512C20.6216 -0.00693512 21.1431 -0.00693512 21.6648 -0.00693512C26.2683 0.185165 30.3858 1.68136 34.0169 4.48167C37.8106 7.50991 40.287 11.3973 41.4462 16.1437C41.755 17.4885 41.9374 18.8482 41.9932 20.223C41.9932 20.7457 41.9932 21.2682 41.9932 21.7909C41.7273 27.0899 39.791 31.6594 36.1841 35.4995C32.9092 38.8784 28.9372 40.9573 24.2681 41.7364C23.27 41.8887 22.2684 41.9743 21.2632 41.9931C21.0925 41.9931 20.9216 41.9931 20.7508 41.9931C15.9799 41.8898 11.7195 40.3798 7.96943 37.4628C4.51889 34.7017 2.14401 31.1982 0.844796 26.9524C0.347432 25.2559 0.0635551 23.5261 -0.00683594 21.7631C-0.00683594 21.2452 -0.00683594 20.7271 -0.00683594 20.2091C0.229376 15.2894 1.93033 10.965 5.09603 7.23588C8.03474 3.8743 11.679 1.64734 16.0288 0.555007C17.3701 0.237885 18.7271 0.0505699 20.1 -0.00693512Z" fill="black"/>
<path fill-rule="evenodd" clip-rule="evenodd" d="M20.5153 3.18434C24.3817 3.1185 27.9083 4.17071 31.0949 6.34093C34.5149 8.75619 36.8435 11.9729 38.0811 15.9911C39.1425 19.7368 39.0179 23.4415 37.7072 27.1051C36.2623 30.902 33.8321 33.8921 30.4164 36.0753C27.1089 38.1098 23.5131 39.0024 19.6291 38.7532C15.7685 38.4438 12.3665 37.047 9.42332 34.5629C6.23778 31.7907 4.25064 28.315 3.46189 24.1358C2.84215 20.5464 3.25296 17.0824 4.69434 13.7433C6.33509 10.1381 8.87614 7.36077 12.3175 5.4113C14.8724 4.01051 17.6049 3.26819 20.5153 3.18434Z" fill="#FEFEFE"/>
<path fill-rule="evenodd" clip-rule="evenodd" d="M20.2662 4.73835C24.1395 4.60383 27.6244 5.68841 30.7212 7.99207C33.7154 10.3202 35.698 13.3288 36.6687 17.0178C37.5172 20.4544 37.2909 23.8168 35.9902 27.105C34.48 30.6902 32.0266 33.426 28.6302 35.3122C25.3236 37.0681 21.8247 37.6231 18.1336 36.9772C14.4798 36.2861 11.4033 34.5772 8.90415 31.8503C6.17442 28.7474 4.78734 25.1145 4.74292 20.9514C4.7995 16.7684 6.21426 13.1308 8.98723 10.0386C11.6343 7.19636 14.8862 5.47814 18.7429 4.88404C19.2511 4.8182 19.7589 4.76964 20.2662 4.73835Z" fill="black"/>
<path fill-rule="evenodd" clip-rule="evenodd" d="M24.7388 10.8573C25.323 10.8528 25.8585 11.0123 26.3451 11.336C26.4931 11.4379 26.6363 11.5466 26.7744 11.662C26.5858 11.84 26.3965 12.0181 26.2066 12.1962C25.1999 13.1818 24.189 14.1623 23.174 15.1378C22.3942 15.8731 21.5818 16.5669 20.7368 17.219C19.6536 17.9613 18.4649 18.2042 17.171 17.9475C16.4538 17.7912 15.7868 17.5161 15.17 17.1219C14.7302 16.8247 14.3102 16.501 13.9099 16.1506C13.3509 15.6321 12.7877 15.1188 12.2205 14.6105C12.8548 13.9124 13.4964 13.221 14.1453 12.5362C14.4875 12.96 14.8222 13.3901 15.1492 13.8266C15.4035 14.1554 15.6874 14.4583 16.0009 14.7354C16.9763 15.5074 18.0473 15.6739 19.2135 15.2349C19.5334 15.0989 19.8242 14.9185 20.0859 14.6938C20.3121 14.4856 20.5383 14.2775 20.7645 14.0694C21.5958 13.2411 22.4219 12.4086 23.2432 11.5719C23.5825 11.2492 23.9795 11.0272 24.4341 10.9058C24.537 10.8851 24.6385 10.8689 24.7388 10.8573Z" fill="#FEFEFE"/>
<path fill-rule="evenodd" clip-rule="evenodd" d="M27.4253 12.328C27.4886 12.3705 27.5464 12.4214 27.5984 12.4807C28.1357 13.0515 28.6781 13.618 29.2255 14.1804C28.7194 14.581 28.2256 14.9972 27.7438 15.4291C27.2507 15.8787 26.8791 16.4129 26.6291 17.0317C26.3408 17.9003 26.4239 18.7328 26.8784 19.5292C27.0544 19.8264 27.2575 20.1039 27.4877 20.3617C28.2727 21.153 29.062 21.9392 29.8556 22.7205C30.0218 22.8963 30.188 23.072 30.3541 23.2478C30.5652 23.4638 30.7498 23.6997 30.908 23.9554C31.2303 24.5458 31.2625 25.1517 31.005 25.773C30.8587 26.1035 30.6579 26.3949 30.4026 26.6472C29.4215 25.6942 28.4383 24.7438 27.453 23.7958C26.6967 23.0566 25.9605 22.3004 25.2443 21.5273C24.4826 20.6349 24.0671 19.599 23.998 18.4192C23.9193 16.8706 24.3855 15.5154 25.3967 14.3538C25.9071 13.8007 26.4402 13.2711 26.9961 12.7651C27.142 12.6213 27.2851 12.4756 27.4253 12.328Z" fill="#FEFEFE"/>
<path fill-rule="evenodd" clip-rule="evenodd" d="M11.7636 15.4083C12.8848 16.5433 14.0041 17.6811 15.1216 18.8216C15.7514 19.4896 16.3607 20.1742 16.9495 20.8751C17.8162 21.8802 18.2085 23.0503 18.1266 24.3855C18.0288 25.6863 17.5487 26.8194 16.6864 27.7849C16.445 28.0512 16.2004 28.3148 15.9525 28.5758C15.5001 29.0105 15.057 29.4545 14.6231 29.9078C14.016 29.244 13.3998 28.5897 12.7744 27.9445C13.1127 27.6709 13.4589 27.4073 13.813 27.1536C14.3448 26.7457 14.7948 26.2624 15.1632 25.7037C15.8089 24.629 15.7996 23.5607 15.1355 22.4985C14.9674 22.2375 14.7782 21.9923 14.5677 21.7631C13.6441 20.8608 12.7348 19.9451 11.8397 19.0159C11.6828 18.8401 11.5258 18.6644 11.3689 18.4886C10.8075 17.7374 10.7568 16.9511 11.2166 16.1298C11.37 15.8675 11.5523 15.6269 11.7636 15.4083Z" fill="#FEFEFE"/>
<path fill-rule="evenodd" clip-rule="evenodd" d="M23.5618 24.0525C25.2001 24.0113 26.6171 24.5455 27.813 25.6551C28.411 26.2495 28.9833 26.8646 29.5301 27.5005C29.515 27.5496 29.4988 27.5982 29.4817 27.6462C29.2601 27.9144 29.0385 28.1827 28.817 28.4509C28.7127 28.56 28.6043 28.6641 28.4916 28.7631C28.2433 28.9586 27.9849 28.9725 27.7161 28.8048C27.5829 28.7129 27.4537 28.6158 27.3283 28.5134C27.0472 28.2549 26.7703 27.9913 26.4975 27.7225C26.11 27.3669 25.6808 27.0709 25.2097 26.8345C24.163 26.3719 23.1613 26.4551 22.2047 27.0842C21.894 27.289 21.6032 27.5203 21.3323 27.778C20.4646 28.6752 19.5875 29.5632 18.7012 30.442C17.8219 31.2425 16.8572 31.3626 15.8071 30.8028C15.6128 30.6869 15.4281 30.5575 15.2532 30.4143C15.8467 29.8149 16.4352 29.2113 17.0188 28.6036C17.9857 27.6531 18.9436 26.6934 19.8921 25.7245C20.9177 24.7391 22.1409 24.1817 23.5618 24.0525Z" fill="#FEFEFE"/>
</g>
<defs>
<clipPath id="clip0_8062_10711">
<rect width="42" height="42" fill="white"/>
</clipPath>
</defs>
</svg>

<svg xmlns="http://www.w3.org/2000/svg" width="42" height="42" fill="none"><g fill-rule="evenodd" clip-path="url(#a)" clip-rule="evenodd"><path fill="#000" d="M20.1-.007h1.565c4.603.192 8.72 1.688 12.352 4.489 3.794 3.028 6.27 6.915 7.43 11.662.308 1.345.49 2.704.546 4.079v1.568c-.266 5.299-2.202 9.868-5.809 13.708-3.275 3.38-7.247 5.458-11.916 6.237-.998.153-2 .238-3.005.257h-.512c-4.771-.103-9.032-1.613-12.782-4.53-3.45-2.761-5.825-6.265-7.124-10.51a21.414 21.414 0 0 1-.852-5.19V20.21C.23 15.29 1.93 10.965 5.096 7.236 8.035 3.874 11.679 1.647 16.029.555A21.58 21.58 0 0 1 20.1-.007Z" opacity=".998"/><path fill="#FEFEFE" d="M20.515 3.184c3.867-.066 7.393.987 10.58 3.157 3.42 2.415 5.748 5.632 6.986 9.65 1.061 3.746.937 7.45-.374 11.114-1.445 3.797-3.875 6.787-7.29 8.97-3.308 2.035-6.904 2.927-10.788 2.678-3.86-.31-7.263-1.706-10.206-4.19-3.185-2.772-5.172-6.248-5.961-10.427-.62-3.59-.209-7.054 1.232-10.393 1.641-3.605 4.182-6.382 7.624-8.332a17.89 17.89 0 0 1 8.197-2.227Z"/><path fill="#000" d="M20.266 4.738c3.874-.134 7.358.95 10.455 3.254 2.994 2.328 4.977 5.337 5.948 9.026.848 3.436.622 6.799-.679 10.087-1.51 3.585-3.963 6.321-7.36 8.207-3.306 1.756-6.805 2.311-10.496 1.665-3.654-.69-6.73-2.4-9.23-5.127-2.73-3.103-4.117-6.736-4.161-10.899.056-4.183 1.471-7.82 4.244-10.912 2.647-2.843 5.9-4.56 9.756-5.155a22.758 22.758 0 0 1 1.523-.146Z"/><path fill="#FEFEFE" d="M24.739 10.857a2.8 2.8 0 0 1 1.606.479c.148.102.291.21.43.326l-.568.534a456.68 456.68 0 0 1-3.033 2.942c-.78.735-1.592 1.429-2.437 2.081-1.083.742-2.272.985-3.566.729a6.097 6.097 0 0 1-2.001-.826c-.44-.297-.86-.621-1.26-.971a133.364 133.364 0 0 0-1.69-1.54 135.16 135.16 0 0 1 1.925-2.075c.343.424.677.854 1.004 1.29.255.33.538.632.852.91.975.771 2.046.938 3.212.499.32-.136.611-.316.873-.541l.679-.625c.83-.828 1.657-1.66 2.478-2.497.34-.323.737-.545 1.191-.666a3.7 3.7 0 0 1 .305-.049ZM27.425 12.328a.888.888 0 0 1 .173.153c.538.57 1.08 1.137 1.628 1.7-.507.4-1 .816-1.482 1.248-.493.45-.865.984-1.115 1.603-.288.868-.205 1.7.25 2.497.175.297.378.575.609.833a283.08 283.08 0 0 0 2.368 2.359l.498.527c.211.216.396.452.554.707a2.01 2.01 0 0 1 .097 1.818c-.146.33-.347.622-.602.874a861.252 861.252 0 0 0-2.95-2.851 63.803 63.803 0 0 1-2.209-2.269 5.126 5.126 0 0 1-1.246-3.108c-.079-1.548.387-2.904 1.399-4.065a25.882 25.882 0 0 1 1.6-1.589c.145-.144.288-.29.428-.437ZM11.764 15.408a1176.68 1176.68 0 0 1 3.358 3.414c.63.668 1.239 1.352 1.828 2.053.866 1.005 1.259 2.175 1.177 3.51a5.6 5.6 0 0 1-1.44 3.4c-.242.266-.487.53-.735.79-.452.436-.895.88-1.329 1.333a92.974 92.974 0 0 0-1.849-1.963c.339-.274.685-.538 1.039-.791a5.926 5.926 0 0 0 1.35-1.45c.646-1.075.637-2.143-.027-3.206a5.44 5.44 0 0 0-.568-.735 127.539 127.539 0 0 1-2.728-2.747l-.471-.527c-.562-.752-.612-1.538-.152-2.36a3.78 3.78 0 0 1 .547-.72ZM23.562 24.052c1.638-.04 3.055.494 4.251 1.603.598.595 1.17 1.21 1.717 1.845a3.5 3.5 0 0 1-.048.146l-.665.805c-.104.109-.213.213-.325.312-.249.196-.507.21-.776.042a5.999 5.999 0 0 1-.388-.292 33.271 33.271 0 0 1-.83-.79 5.63 5.63 0 0 0-1.288-.889c-1.047-.462-2.049-.379-3.005.25a6.27 6.27 0 0 0-.873.694c-.867.897-1.745 1.785-2.63 2.664-.88.8-1.845.92-2.895.36a4.562 4.562 0 0 1-.554-.388c.594-.6 1.182-1.203 1.766-1.81.967-.95 1.925-1.91 2.873-2.88a5.925 5.925 0 0 1 3.67-1.672Z"/></g><defs><clipPath id="a"><path fill="#fff" d="M0 0h42v42H0z"/></clipPath></defs></svg>
